X:1
T: The Lads of Tarland
C:Alexander Walker
R:Jig
Q:180
K:G
M:6/8
L:1/16
BA|G2A2G2 G2D2B,2|D2E2D2 D2B2A2|G2A2G2 G2D2B,2|A2A,2A,2 A,4D2|G2A2G2 G2D2B,2|D2E2G2 A4B2|c2d2e2 D2E2F2|G2G,2G,2G,4BA|
G2A2G2 G2D2B,2|D2E2D2 D2B2A2|G2A2G2 G2D2B,2|A2A,2A,2A,4D2|G2A2G2 G2D2B,2|D2E2G2 A4B2|c2d2e2 D2E2F2|G2G,2G,2G,4d2|
g2a2b2 g2d2B2|G2B2d2 e2d2B2|g2a2b2 g2d2B2|e2A2A2 A4f2|g2a2b2 g2d2B2|G2B2d2 e4d2|c2d2e2 D2E2F2|G2G,2G,2G,4d2|
g2a2b2 g2d2B2|G2B2d2 e2d2B2|g2a2b2 g2d2B2|e2A2A2A4d2|g2a2b2 f2g2a2|e2f2g2 d2c2B2|c2d2e2 A2G2F2|G2G,2G,2G,4||
